public/images/website/twitter.svg

<?xml version="1.0" encoding="UTF-8"?>
<svg width="48px" height="48px" viewBox="0 0 48 48" version="1.1" xmlns="http://www.w3.org/2000/svg" xmlns:xlink="http://www.w3.org/1999/xlink">
    <!-- Generator: Sketch 53.2 (72643) - https://sketchapp.com -->
    <title>twitter</title>
    <desc>Created with Sketch.</desc>
    <g id="Page-1" stroke="none" stroke-width="1" fill="none" fill-rule="evenodd">
        <g id="Twitter">
            <g id="Group-4">
                <rect id="Rectangle" fill="#1DA1F2" x="0" y="0" width="48" height="48" rx="24"></rect>
                <path d="M37.069312,19.3894043 C37.069312,19.1336603 37.069312,18.8790683 37.052032,18.6256283 C38.2084457,17.7891736 39.2066815,16.7534894 40,15.5670683 C38.9215887,16.04492 37.7775953,16.3582949 36.606208,16.4967323 C37.8397051,15.7582797 38.7628943,14.5968217 39.203968,13.2285083 C38.0440854,13.9167768 36.7751443,14.4018342 35.451904,14.6627483 C33.6203194,12.7151705 30.7099487,12.238494 28.3527608,13.5000116 C25.9955728,14.7615292 24.7777888,17.4475076 25.382272,20.0518043 C20.6313039,19.8136278 16.2048361,17.5696167 13.20448,13.8782363 C11.6361734,16.578115 12.437234,20.0320584 15.033856,21.7659803 C14.0935259,21.7381106 13.1736978,21.4844467 12.352,21.0263963 C12.352,21.0505883 12.352,21.0759323 12.352,21.1012763 C12.3527697,23.9139914 14.3354577,26.3365808 17.09248,26.8935323 C16.2225698,27.1307753 15.3098528,27.1654554 14.424448,26.9949083 C15.198532,29.4019234 17.4168539,31.0508513 19.944832,31.0983323 C17.8524948,32.7427339 15.2677806,33.6354139 12.606592,33.6327323 C12.1364649,33.6318298 11.6667951,33.6033649 11.2,33.5474843 C13.9021726,35.2815629 17.0463002,36.2013662 20.257024,36.1970843 C31.124992,36.2016923 37.069312,27.1976603 37.069312,19.3894043 Z" id="Shape" fill="#FFFFFF" fill-rule="nonzero"></path>
            </g>
        </g>
    </g>
</svg>

<svg width="48" height="48" xmlns="http://www.w3.org/2000/svg"><g fill="none" fill-rule="evenodd"><rect fill="#1DA1F2" width="48" height="48" rx="24"/><path d="M37.07 19.39c0-.256 0-.51-.018-.764A12.022 12.022 0 0 0 40 15.567a11.794 11.794 0 0 1-3.394.93 5.93 5.93 0 0 0 2.598-3.268 11.841 11.841 0 0 1-3.752 1.434 5.914 5.914 0 0 0-10.07 5.389 16.775 16.775 0 0 1-12.178-6.174 5.913 5.913 0 0 0 1.83 7.888 5.865 5.865 0 0 1-2.682-.74v.075a5.91 5.91 0 0 0 4.74 5.793 5.9 5.9 0 0 1-2.668.1 5.916 5.916 0 0 0 5.52 4.104 11.856 11.856 0 0 1-8.744 2.45 16.728 16.728 0 0 0 9.057 2.65c10.868.004 16.812-9 16.812-16.809z" fill="#FFF" fill-rule="nonzero"/></g></svg>
